public/svg/profiles/dribbble.svg

<?xml version="1.0" encoding="UTF-8" standalone="no"?>
<svg width="50px" height="51px" viewBox="0 0 50 51" version="1.1" xmlns="http://www.w3.org/2000/svg" xmlns:xlink="http://www.w3.org/1999/xlink">
    <defs></defs>
    <g id="Page-1" stroke="none" stroke-width="1" fill="none" fill-rule="evenodd">
        <g id="Group">
            <g>
                <rect id="Rectangle-path" fill="#E74D89" x="0" y="0" width="50" height="50" rx="25"></rect>
                <path d="M25,50.0035156 C11.2109375,50.0035156 0,38.7989791 0,25.0132927 C0,11.2080522 11.2109375,0.003515625 25,0.003515625 C38.7890625,0.003515625 50,11.2080522 50,24.9937385 C50,38.7794249 38.7890625,50.0035156 25,50.0035156 L25,50.0035156 Z M46.0742188,28.4157174 C45.3515625,28.1810674 39.4726563,26.4407468 32.7734375,27.4966717 C35.5664063,35.1619044 36.6992188,41.4192372 36.9140625,42.7098121 C41.71875,39.4833748 45.1367188,34.3601836 46.0742188,28.4157174 L46.0742188,28.4157174 Z M33.3398438,44.6847827 C33.0273438,42.8075829 31.7773438,36.2764918 28.7890625,28.4939341 C28.75,28.5134882 28.6914062,28.5330424 28.6523438,28.5330424 C16.6015625,32.7371879 12.2851562,41.0868164 11.8945312,41.868983 C15.5078125,44.6847827 20.0585938,46.3664409 25,46.3664409 C27.9492188,46.3859951 30.78125,45.779816 33.3398438,44.6847827 L33.3398438,44.6847827 Z M9.140625,39.3073873 C9.62890625,38.4861124 15.4882813,28.7872466 26.5039063,25.2088344 C26.7773438,25.1110635 27.0703125,25.0328469 27.34375,24.9546302 C26.8164063,23.742272 26.2304688,22.5299137 25.6054688,21.3371097 C14.9414063,24.5244386 4.58984375,24.3875594 3.65234375,24.3680053 C3.65234375,24.5831011 3.6328125,24.7981969 3.6328125,25.0132927 C3.65234375,30.5080131 5.72265625,35.5138793 9.140625,39.3073873 L9.140625,39.3073873 Z M4.1015625,20.6527139 C5.05859375,20.6722681 13.8476563,20.7113764 23.8476562,18.05201 C20.3125,11.7555688 16.484375,6.47594425 15.9375,5.71333182 C9.94140625,8.52913158 5.48828125,14.0434061 4.1015625,20.6527139 L4.1015625,20.6527139 Z M20,4.2663236 C20.5859375,5.0484902 24.4726562,10.3281148 27.96875,16.7614351 C35.5664062,13.906527 38.7695312,9.60461066 39.1601562,9.05709404 C35.390625,5.71333182 30.4296875,3.67969865 25,3.67969865 C23.28125,3.67969865 21.6015625,3.89479447 20,4.2663236 L20,4.2663236 Z M41.5234375,11.5209188 C41.0742188,12.1270979 37.5,16.7223267 29.609375,19.948764 C30.0976563,20.9655805 30.5859375,22.0019513 31.0351563,23.038322 C31.1914063,23.4098512 31.3476563,23.7813803 31.5039063,24.1333553 C38.6132813,23.2338637 45.6640625,24.6808719 46.3671875,24.8177511 C46.3085938,19.7923306 44.5117188,15.1579935 41.5234375,11.5209188 L41.5234375,11.5209188 Z" id="Shape" fill="#B2215A"></path>
            </g>
        </g>
    </g>
</svg>

<svg width="50" height="51" viewBox="0 0 50 51" xmlns="http://www.w3.org/2000/svg"><g fill="none" fill-rule="evenodd"><rect fill="#E74D89" width="50" height="50" rx="25"/><path d="M25 50.004c-13.79 0-25-11.205-25-24.99C0 11.207 11.21.003 25 .003s25 11.204 25 24.99c0 13.785-11.21 25.01-25 25.01zm21.074-21.588c-.722-.235-6.6-1.975-13.3-.92 2.792 7.666 3.925 13.923 4.14 15.214 4.805-3.227 8.223-8.35 9.16-14.294zM33.34 44.686c-.313-1.878-1.563-8.41-4.55-16.192-.04.02-.1.04-.138.04-12.05 4.203-16.367 12.553-16.757 13.335 3.613 2.815 8.164 4.496 13.105 4.496 2.95.02 5.78-.586 8.34-1.68zm-24.2-5.38c.49-.82 6.348-10.52 17.364-14.097.273-.1.566-.177.84-.255-.528-1.213-1.114-2.425-1.74-3.618-10.663 3.187-21.014 3.05-21.952 3.03 0 .216-.02.43-.02.646.02 5.495 2.09 10.5 5.51 14.294zM4.103 20.654c.957.02 9.746.058 19.746-2.6-3.535-6.297-7.364-11.577-7.91-12.34-5.997 2.816-10.45 8.33-11.836 14.94zM20 4.266c.586.782 4.473 6.062 7.97 12.495 7.596-2.853 10.8-7.155 11.19-7.703C35.39 5.713 30.43 3.68 25 3.68c-1.72 0-3.398.215-5 .586zm21.523 7.255c-.45.607-4.023 5.202-11.914 8.43.488 1.016.976 2.052 1.425 3.088.156.372.313.743.47 1.095 7.108-.9 14.16.548 14.862.685-.058-5.026-1.855-9.66-4.844-13.297z" fill="#B2215A"/></g></svg>
